icons/outline/lock-cog.svg

<!--
category: System
tags: [configure, settings, adjust, modify, manage, gear, control, system, optimize, arrange]
version: "2.10"
unicode: "f928"
-->
<svg
  xmlns="http://www.w3.org/2000/svg"
  width="24"
  height="24"
  viewBox="0 0 24 24"
  fill="none"
  stroke="currentColor"
  stroke-width="2"
  stroke-linecap="round"
  stroke-linejoin="round"
>
  <path d="M12 21h-5a2 2 0 0 1 -2 -2v-6a2 2 0 0 1 2 -2h10c.564 0 1.074 .234 1.437 .61m-7.437 4.39a1 1 0 1 0 2 0a1 1 0 0 0 -2 0m-3 -5v-4a4 4 0 1 1 8 0v4m3.001 8m-2 0a2 2 0 1 0 4 0a2 2 0 1 0 -4 0m2 -3.5v1.5m0 4v1.5m3.031 -5.25l-1.299 .75m-3.463 2l-1.3 .75m0 -3.5l1.3 .75m3.463 2l1.3 .75" />
</svg>

<!--
category: System
tags: [configure, settings, adjust, modify, manage, gear, control, system, optimize, arrange]
version: "2.10"
unicode: "f928"
-->
<svg
  xmlns="http://www.w3.org/2000/svg"
  width="24"
  height="24"
  viewBox="0 0 24 24"
  fill="none"
  stroke="currentColor"
  stroke-width="2"
  stroke-linecap="round"
  stroke-linejoin="round"
>
    <path d="M12 21h-5a2 2 0 0 1 -2 -2v-6a2 2 0 0 1 2 -2h10c.564 0 1.074 .234 1.437 .61M11 16a1 1 0 1 0 2 0a1 1 0 0 0 -2 0M8 11v-4a4 4 0 1 1 8 0v4M19.001 19m-2 0a2 2 0 1 0 4 0a2 2 0 1 0 -4 0M19.001 15.5v1.5M19.001 21v1.5M22.032 17.25l-1.299 .75M17.27 20l-1.3 .75M15.97 17.25l1.3 .75M20.733 20l1.3 .75" />
</svg>
